X: 1
T: PARNELL'S -- REEL
B: Ryan's Mammoth Collection of Fiddle Tunes
R: reel
M: 2/4
L: 1/16
Z: Contributed 20010316032248 by John Chambers jmchambers:rcn.com
K: G
((3uDEF) "^Segno"\
|: G2BG dGBG | FDAD BDAD | G2BG dGBd | egfa gedB |
|  G2BG dGBG | FDAD BDAD | G2BG dGBd | egfa g2g2 "^Fermat:a"[|]:|
  gdBd edBd | gaag fdef | gdBd edBd | egfa g2g2 |
| gabg efge | dedc BGBd | efed edBd |1egfa g2g2 :|2 egfa gedB "^Segno"[|]|]
